!!!Genre:	Freylekhs
!!!Mode:	Major (Mixolydian)
!!!Listening/dance:	dance
!!!One_Mode:	yes
**kern
*I"P1
*clefG2
*k[f#]
*G:
*M2/4
*>A
=1
8dL
16gL
16gJJ
16bLL
16b
16dd
16ddJJ
=2
16ffnLL
16ee
16dd
16ccJJ
8bL
16aL
16gJJ
=3
8dL
16gL
16gJJ
16bLL
16b
16dd
16ddJJ
=4
16ffnLL
16ee
16dd
16cc#XJJ
4dd
=5
8dL
16gL
16gJJ
16bLL
16b
16dd
16ddJJ
=6
16ffnLL
16ee
16dd
16ccJJ
8bL
16aL
16gJJ
=7
8gL
8qb/
8aJ
16gLL
16f#X
16e
16f#JJ
=8
4g
4gg
=:|!
4.g
=9||
*>B
8d
=10
[4dd
16ddLL]
16cc
16b
16ccJJ
=11
[4dd
16ddLL]
16cc
16b
16ccJJ
=12
16ddLL
16cc
16b
16ccJJ
16ddLL
16cc
16b
16ccJJ
=13
16ddLL
16cc
16b
16ccJJ
4dd
=14
16ddLL
16cc
16b
16ccJJ
16ddLL
16ee
16ffn
16eeJJ
=15
(16ddLL
16cc)
(16cc
16bJJ)
(16bLL
16a)
(16a
16gJJ)
=16
16ddLL
16cc
16b
16ccJJ
16ddLL
16ee
16ffn
16eeJJ
=17
4dd
4gg
=18
16ddLL
16cc
16b
16ccJJ
16ddLL
16ee
16ffn
16eeJJ
=19
(16ddLL
16cc)
(16cc
16bJJ)
(16bLL
16a)
(16a
16gJJ)
=20
8gL
8qb/
8aJ
16gLL
16f#
16e
16f#JJ
=21
2g
==
*-
